public/icons/success.svg

<svg width="24" height="24" viewBox="0 0 24 24" fill="none" xmlns="http://www.w3.org/2000/svg">
    <mask id="path-1-inside-1_1285_3574" fill="white">
        <path d="M24 12C24 18.6274 18.6274 24 12 24C5.37258 24 0 18.6274 0 12C0 5.37258 5.37258 0 12 0C18.6274 0 24 5.37258 24 12ZM1.2 12C1.2 17.9647 6.03533 22.8 12 22.8C17.9647 22.8 22.8 17.9647 22.8 12C22.8 6.03533 17.9647 1.2 12 1.2C6.03533 1.2 1.2 6.03533 1.2 12Z"/>
    </mask>
    <path d="M24 12C24 18.6274 18.6274 24 12 24C5.37258 24 0 18.6274 0 12C0 5.37258 5.37258 0 12 0C18.6274 0 24 5.37258 24 12ZM1.2 12C1.2 17.9647 6.03533 22.8 12 22.8C17.9647 22.8 22.8 17.9647 22.8 12C22.8 6.03533 17.9647 1.2 12 1.2C6.03533 1.2 1.2 6.03533 1.2 12Z" stroke="white" stroke-width="11.52" mask="url(#path-1-inside-1_1285_3574)"/>
    <path d="M24 12C24 18.6274 18.6274 24 12 24C5.37258 24 0 18.6274 0 12C0 5.37258 5.37258 0 12 0C18.6274 0 24 5.37258 24 12ZM1.2 12C1.2 17.9647 6.03533 22.8 12 22.8C17.9647 22.8 22.8 17.9647 22.8 12C22.8 6.03533 17.9647 1.2 12 1.2C6.03533 1.2 1.2 6.03533 1.2 12Z" fill="white"/>
    <path d="M17.5428 8.4707H16.6358C16.5087 8.4707 16.388 8.52621 16.3102 8.62118L10.9605 15.0632L8.39526 11.9735C8.35645 11.9267 8.30699 11.8888 8.25058 11.8628C8.19418 11.8367 8.13229 11.8231 8.06958 11.8231H7.16261C7.07567 11.8231 7.02766 11.918 7.08086 11.9822L10.6348 16.262C10.8009 16.4618 11.1201 16.4618 11.2874 16.262L17.6246 8.62858C17.6778 8.56567 17.6298 8.4707 17.5428 8.4707Z" fill="white"/>
</svg>

<svg width="24" height="24" fill="none" xmlns="http://www.w3.org/2000/svg"><mask id="a" fill="#fff"><path d="M24 12c0 6.627-5.373 12-12 12S0 18.627 0 12 5.373 0 12 0s12 5.373 12 12zM1.2 12c0 5.965 4.835 10.8 10.8 10.8 5.965 0 10.8-4.835 10.8-10.8 0-5.965-4.835-10.8-10.8-10.8C6.035 1.2 1.2 6.035 1.2 12z"/></mask><path d="M24 12c0 6.627-5.373 12-12 12S0 18.627 0 12 5.373 0 12 0s12 5.373 12 12zM1.2 12c0 5.965 4.835 10.8 10.8 10.8 5.965 0 10.8-4.835 10.8-10.8 0-5.965-4.835-10.8-10.8-10.8C6.035 1.2 1.2 6.035 1.2 12z" stroke="#fff" stroke-width="11.52" mask="url(#a)"/><path d="M24 12c0 6.627-5.373 12-12 12S0 18.627 0 12 5.373 0 12 0s12 5.373 12 12zM1.2 12c0 5.965 4.835 10.8 10.8 10.8 5.965 0 10.8-4.835 10.8-10.8 0-5.965-4.835-10.8-10.8-10.8C6.035 1.2 1.2 6.035 1.2 12z" fill="#fff"/><path d="M17.543 8.47h-.907a.421.421 0 0 0-.326.151l-5.35 6.442-2.565-3.09a.431.431 0 0 0-.326-.15h-.906c-.087 0-.135.095-.082.16l3.554 4.279c.166.2.485.2.652 0l6.338-7.633c.053-.063.005-.158-.082-.158z" fill="#fff"/></svg>
